X: 1
T:Tenpenny Bit, The
M:6/8
L:1/8
Q:240
C:Traditional
R:Jig
N:Second in set played  with "Toss The Feathers" and "Morrison's Jig"
K:G
|:"Am"eAA eAA|"Em"BAB GBd|"Am"eAA eAA|"D"def "G"gff|\
"Am"eAA eAA|"Em"BAB GBd|"Em"edB gBB|"G"BAG "Am"A2 G:|
|:"Am"A2 a aga|"G"bge dBG|"Am"A2 a aga|"Em"bge g2 d|\
"Am"e2 a aga|"G"bge dBd|"Em"edB gBB|1"G"BAG "Am"A2 G:|2"G"BAG "Am"A4|]

